ui/StatusQ/src/assets/img/icons/verified.svg

<svg fill="none" height="10" viewBox="0 0 10 10" width="10" xmlns="http://www.w3.org/2000/svg"><circle cx="5" cy="5" fill="#4360df" r="5"/><path clip-rule="evenodd" d="m4.21097 5.79222 2.52757-2.53649c.17362-.17424.45453-.17483.63015.0014.17439.17501.1753.45785.00139.63237l-2.84474 2.85478c-.08633.08663-.19919.13034-.31244.13072-.11661-.00088-.22979-.0439-.31479-.1292l-1.26891-1.27339c-.17279-.1734-.1727-.45462.00291-.63085.17439-.17501.45818-.17398.62863-.00292z" fill="#fff" fill-rule="evenodd"/></svg>

<svg width="10" height="10" viewBox="0 0 10 10" fill="none" xmlns="http://www.w3.org/2000/svg">
<circle cx="5" cy="5" r="5" fill="#4360DF"/>
<path fill-rule="evenodd" clip-rule="evenodd" d="M4.21097 5.79222L6.73854 3.25573C6.91216 3.08149 7.19307 3.0809 7.36869 3.25713C7.54308 3.43214 7.54399 3.71498 7.37008 3.8895L4.52534 6.74428C4.43901 6.83091 4.32615 6.87462 4.2129 6.875C4.09629 6.87412 3.98311 6.8311 3.89811 6.7458L2.6292 5.47241C2.45641 5.29901 2.4565 5.01779 2.63211 4.84156C2.8065 4.66655 3.09029 4.66758 3.26074 4.83864L4.21097 5.79222Z" fill="white"/>
</svg>
